X: 1
T: Sl\"angpolska fr\aan N\"arke
O: David Bastviken Feb 1997
Z: John Chambers <jc@trillian.mit.edu>
M: 3/4
L: 1/8
K: G
|: "G"dg gf fe | "D7"{e}fa/f/ d3 c | "G"BA/B/ "C"cB AG |1,3 " D7"B/A/G/F/ "G"GD B,G, :|2,4 " D7"AF F2 "G"G2 :|
|: "G"GB BA "D7"A2 | Ac cB "G"B2 | Bd dc "C"c2 | ce ed "D7"d2 |
| "G"dg gf fe | "D7"{e}fa/f/ d3 c | "G"BA/B/ "C"cB AG | "D7"AF F2 "G"G2 :|

%%sep 1 1 500

